X:1
T:Mummers’ Carol
T:Mummers’ Carol
T:Sussex Folk Song
T:Public Domain Courtesy of the Cyber Hymnal™
T:Public Domain Courtesy of the Cyber Hymnal™
C:Sussex Folk Song
Z:Public Domain
Z:Courtesy of the Cyber Hymnal™
%%score ( 1 2 ) ( 3 4 )
L:1/8
Q:1/4=100
M:4/4
K:D
V:1 treble 
V:2 treble 
V:3 bass 
V:4 bass 
V:1
 (DA) | [DA]2 G2 [DF]2 [CE][DF] | [EG]2 [DF]2 [CE]2 (D[CE]) | [DF]3 [CE] [DF]2 (3(G{a}AB) | %4
w: 1.~A *|glor- ious an- gel from|Hea- ven came Un- *|to the vir- gin * *|
w: 2.~Each *|mor- tal man r- e-|mem- bers well, When *|Christ came down from * *|
w: 3.~Each *|mor- tal man r- e-|mem- bers well, When *|Christ was put to * *|
w: 4.~Each *|mor- tal man r- e-|mem- bers well, When *|Christ our Sav- ior * *|
w: 5.~Each *|mor- tal man r- e-|mem- bers well, How *|Christ died on the * *|
w: 6.~Each *|mor- tal man r- e-|mem- bers well, When *|Christ was wrapped in * *|
w: 7.~God *|bless your house, yo- ur|child- ren, too, Your *|cat- tle and your * *|
 A6 (AA) | [B,B]2 [DA]2 (GA) B2 | [EA]2 (GF) (EF) [DG]2 x2 | A3 B [CA]2 [DG]2 | %8
w: maid; Strange *|news and tid- * ings|of great * joy * The|hum- ble Ma- ry|
w: Heav’n, ’Twas *|for our sins * and|wick- ed * ways * His|pre- cious blood was|
w: scorn; He~was *|tak- en to * the|judg- ment * seat * And|crown- èd with the|
w: died, He~was *|cru- ci- fied * up-|on the * tree, * With|thieves on ei- ther|
w: rood, ’Twas *|for our sins * and|wick- ed * ways, * Christ|shed His pre- cious|
w: clay, He *|was taken to * a|se- pul- * cher * Where|ne- ver man did|
w: store; The *|Lord in- crease * you|day by * day, * And|give you more and|
 ([DF]2 [DA]2 [CE]2) [B,D]2 | (A2 E2 [DF]2) (BG) x4 | F4 (z2 E2 z) D | [A,D]6 |] %12
w: had, * * The|hum- * * ble *|Ma- * ry||
w: giv’n, * * His|pre- * * cious *|blood * was||
w: thorn, * * And|crown- * * èd *|with * the||
w: side, * * With|thieves * * on *|ei- * ther||
w: blood, * * Christ|shed * * His *|pre- * cious||
w: lay, * * Where|ne- * * ver *|man * did||
w: more, * * And|give * * you *|more * and||
V:2
 D2 | x2 (B,C) x4 | x8 | x6 D2 | (F2 E2 D2) C2 | x4 E2 (GF) | x2 D2 C2 x4 | D4 x4 | x8 | %9
w: |||||||||
w: |||||||||
w: |||||||||
w: |||||||||
w: |||||||||
w: |||||||||
w: |||||||||
 A,4 E2- x6 | (E2 D4 C2) x2 | x6 |] %12
w: |had. * *||
w: |giv’n. * *||
w: |thorn. * *||
w: |side. * *||
w: |blood. * *||
w: |lay. * *||
w: |more. * *||
V:3
 [D,F,]2 | [D,F,]2 [E,G,]2 A,4 | [E,B,]2 A,2 A,4 | A,4 [D,A,]2 (B,G,) | %4
 ([D,F,]2 [E,G,]2 [F,A,]2) [F,A,]2 | G,2 [F,A,]2 B,4 | A,4 (A,2 z) x3 | %7
 [F,,A,]2 [G,,G,]2 [A,,E,]2 [B,,G,]2 | ([D,A,]2 A,2-) (A,G,) [B,,F,]2 | E,2 z2 (G,B,) x6 | %10
 ([A,,A,]4 A,2 G,2) x2 | [D,F,]6 |] %12
V:4
 x2 | x4 F,2 G,F, | x2 (F,G,) (A,G,F,E,) | (D,2 A,,2) G,,2 x2 | x8 | x4 E,3 D, | %6
 C,2 D,2 A,,3 B,2 G,, | x8 | x2 (F,,G,, A,,2) x2 | C,4 A,4 D,2 G,,2 | x4 A,,4 x2 | x6 |] %12

